image/icon-telegram-blue.svg

<svg width="18" height="20" viewBox="0 0 18 20" fill="none" xmlns="http://www.w3.org/2000/svg">
<path d="M9 0.3125C4.18331 0.3125 0.28125 4.64875 0.28125 10C0.28125 15.3512 4.18387 19.6875 9 19.6875C13.8167 19.6875 17.7188 15.3512 17.7188 10C17.7188 4.64875 13.8161 0.3125 9 0.3125ZM13.2823 6.94938L11.8513 14.4419C11.7456 14.9731 11.4609 15.1019 11.0638 14.8519L8.88412 13.0669L7.83281 14.1919C7.71694 14.3206 7.6185 14.43 7.3935 14.43L7.54819 11.965L11.5875 7.91C11.7636 7.73812 11.5487 7.64062 11.3164 7.8125L6.32419 11.3044L4.17263 10.5581C3.70519 10.3944 3.6945 10.0387 4.27106 9.78875L12.6771 6.18688C13.0674 6.03063 13.4083 6.2925 13.2817 6.94875L13.2823 6.94938Z" fill="#295093"/>
</svg>

<svg width="18" height="20" fill="none" xmlns="http://www.w3.org/2000/svg"><path d="M9 .313C4.183.313.281 4.649.281 10c0 5.351 3.903 9.688 8.719 9.688 4.817 0 8.719-4.337 8.719-9.688C17.719 4.649 13.816.312 9 .312Zm4.282 6.636-1.43 7.493c-.106.531-.391.66-.788.41l-2.18-1.785-1.051 1.125c-.116.129-.215.238-.44.238l.155-2.465 4.04-4.055c.176-.172-.04-.27-.272-.098l-4.992 3.492-2.151-.746c-.468-.164-.478-.52.098-.77l8.406-3.601c.39-.156.732.106.605.762Z" fill="#295093"/></svg>
